X:23
T:Roger de Coverley. WCl.23
M:9/4
L:1/4
Q:3/4=140
S:William Clarke MS,Lincoln,1770.
R:.Slip Jig
O:Lincoln
A:England
N:.Nice version though…
Z:vmp.Barry Callaghan
K:D
“_Usually only one sharp”EFGgfedBG|F2AAEAF2 E/2D/2|\
EFGgfedBd|g2GGEAF2E/2D/2||!
dBdecedBG|F2AAEAF2E/2D/2|dBdecedBG|g2GGEAF2E/2D/2||!
gabbabbag|fgaa>b a/2g/2f>ed|gabbabagf|g2GGEAF2E/2D/2||!
dBdgecdBG|F2AAEAF2E/2D/2|dBdgecdBG|g2GGEAF2E/2D/2||!
EFGG,2DB,2D|G,2AAEAF2E/2D/2|EFGG,2DB,2D|G,2GGEAF2E/2D/2||!
ECEDB,DDB,G,|A,2AAEcF2E/2D/2|ECEDB,DDB,G,|G,2GGEAF2E/2D/2|]
W:Yes,crotchets and minims.

